X:1
T:BWV1011M
T:J. S. Bach
%%score { 1 | 2 }
L:1/8
M:4/4
K:D
V:1 treble nm="Harp"
V:2 bass 
V:1
 B,2- B,/F,/^G,/^A,/ B,/C/D/E/ D/C/D/B,/ | [^A,EG]3 G FG/E/ DE/C/ | D4 B,2- B,/B,/C/D/ | %3
 C3 C ^D2 z2 | E2 z2 [EB]3 B | [EB-]2 B/B/A/G/ A>F F>A | G2 z2 E-E/4D/4C/4D/4 E>B, | %7
 E3 F/G/ F>E D>C | D2- D/E/4D/4C/D/ E/4D/4E/4D/4E/4D/4E/4D/4 E/4D/4E/4D/4C | %9
 C2- C/C/^D/^E/ F/^G/A/B/ A/G/A/F/ | [^Ed]3 d c3/2B/4A/4 ^G>A | [E^A]3 D/C/ D>F B>D | %12
 [CB-]2 B/A/B/^G/ A>F =c>E | [^D^B-]2 B/=B/A/G/ F>G A>F | A2[I:staff +1] E,>F, G,>A, B,>D, | %15
[I:staff -1] [EG-]2 G/A/G/A/ B/4A/4B/4A/4B/4A/4B/4A/4 B/4A/4B/4A/4G | %16
 [DF-]2 F/E/D/C/ D/E/F/G/ A/B/c/A/ | d2[I:staff +1] B,,>[I:staff -1]c B>A ^G>F | %18
 [^E-c]2 E/B,/A,/^G,/ A,>F G,>F, |[I:staff +1] ^E,>[I:staff -1]^G A>B C>B A>G | %20
 [CA-]2 A/F/E/D/ C/B,/A,/^G,/ A,/F,/G,/A,/ | [D-A]2 D/C/B,/A,/ B,/A/^G/A/ B/G/A/B/ | %22
 ^E/F/E/F/ ^G/E/F/G/ B,/C/B,/C/ D/B,/C/D/ | %23
[I:staff +1] ^G,/A,/G,/A,/ B,/G,/A,/B,/ C,/^D,/^E,/F,/ G,/A,/B,/G,/ | %24
[I:staff -1] A,/C/^D/^E/ F/^G/A/B/ c2- c/B/A/G/ | A>^E F>B, [CF]2 F/4E/4F/4E/4F/4E/4F/ | %26
[M:3/8] [CF]2 F | GB,C | DF/E/F/D/ | E^G,^A, | B,D/C/D/B,/ | C/D/E/F/G | %32
 B,/4^A,/4B,/4A,/4F,/E/D/C/ | D/E/C/D/E/C/ | D/C/D/F/B/c/ | dF^G | Ac/B/c/A/ | B^D^E | FA/^G/A/F/ | %39
 ^G/A/B/c/F/d/ | ^E/d/c/B/A/^G/ | A/B/^G/A/B/G/ | A/F/C/D/E/C/ | ^D/B/F/G/A/F/ | G/E/B,/C/D/B,/ | %45
 C/D/E/F/G/E/ | F/E/D/C/B,/A,/ | G,B,C | D[I:staff +1]F,/E,/F,/D,/ | E,^G,^A, | B,D,/C,/D,/B,,/ | %51
 C,/D,/E,/F,/G,/E,/ |[I:staff -1] ^A,/B,/C/D/E/C/ | D/E/C/D/E/C/ | D/C/B,/C/D/E/ | F/E/F^G | %56
 AC/B,/C/A,/ | B,/C/^D^E | FA,/^G,/A,/F,/ | ^G,/A,/B,/C/D/B,/ | ^E/F/^G/A/B/G/ | A/B/^G/A/B/G/ | %62
 [CA]/F/^G/A/B/c/ | d/B,/C/D/E/F/ | G/E/F/G/A/B/ | c/A,/B,/C/D/E/ | F/D/E/F/G/A/ | B/A/G/F/E/D/ | %68
 G/F/E/D/C/B,/ | E/D/C/B,/A,/^G,/ | D/C/B,/A,/A | BD/F/E/G/ | F/B/A/G/A/F/ | GB,/D/C/E/ | %74
 D/G/F/E/F/D/ | E/F/G/A/B | D/C/B,/A,/B,/C/ | D/E/F/4E/4F/4E/4F/4E/4D/ | [A,D]F/E/F/D/ | %79
 AC/A/^D/A/ | E/A/G/F/G/E/ | BD/B/E/B/ | F/B/A/G/A/F/ | dF/d/G/d/ | A/c/E/c/F/c/ | G/B/D/B/E/B/ | %86
 F/B/^A/^G/A/F/ | G/A/Bc | d/G/F/E/F/D/ | E/F/^G/E/^A/E/ | B/E/D/C/D/B,/ | C/D/E/C/^A,/B,/ | %92
[I:staff +1] C/^A,/F,/^G,/A,/E,/ | D,/F,/B,/E,/F,/^A,/ |[I:staff -1] ^G,/B,/E/^A,/B,/D/ | %95
 C/E/A/^D/E/G/ | E/F/D/F/C/F/ | D/F/D/B/D/A/ | D/^G/E/G/D/G/ | C/G/C/A/C/G/ | D/G/F/E/F/A/ | %101
 d[I:staff +1]F,^G, |[I:staff -1] A,c/B/c/A/ | B[I:staff +1]^D,^E, | F,[I:staff -1]A/^G/A/F/ | %105
 ^G/A/B/G/^E/F/ | ^G/^E/C/^D/E/B,/ | A,/C/F/B,/C/^E/ | [CF]2 C | z B,/A,/B,/^G,/ | A,/C/F/^D/E/C/ | %111
 ^D/B,/A,/^G,/A,/F,/ | G,/B,/E/C/D/B,/ | z C/D/C/D/ | E/F/E/F/G/E/ | ^A/E/c/G/F/E/ | D/F/C/D/E/C/ | %117
 D/B,/^A,/B,/C/A,/ | B,/D/C/D/E/C/ | ^D/A,/G,/A,/B,/G,/ | A,/E/^D/E/F/D/ | %121
 E/[I:staff +1]G,/F,/G,/A,/F,/ | G,/[I:staff -1]F/E/F/G/E/ | F/[I:staff +1]^D,/C,/D,/E,/C,/ | %124
 ^D,/E,/F,/G,/A,/F,/ | G,/F,/G,/A,/[I:staff -1]B,/C/ | ^D/E/F/G/A/F/ | G/F/E/^D/E/F/ | %128
 G/A/B/=c/A/B/ | =c/A/E/G/F/A/ | G/=c/B/A/B/G/ | A/F/C/E/^D/F/ | E/A/G/F/G/E/ | F/G/A/F/^D/E/ | %134
 F/^D/B,/C/D/A,/ | G,/B,/E/A,/B,/^D/ | E[I:staff +1]E,[I:staff -1]G | z E/C/E/C/ | A,/G/E/C/E/C/ | %139
 A,/B/A/G/F/E/ | F/E/D/F/E/G/ | z D/B,/D/B,/ | G,/F/D/B,/D/B,/ | G,/A/G/F/E/D/ | E/D/C/E/D/F/ | %145
 z c/^A/c/A/ | F/E/C/^A,/C/A,/ | F,/G/F/E/D/C/ | D/C/D/E/F/[I:staff +1]F,/ | G,[I:staff -1]Bc | %150
 d[I:staff +1]F,/E,/F,/D,/ | E,[I:staff -1]^G^A | B[I:staff +1]D,/C,/D,/B,,/ | %153
 C,/[I:staff -1]B,/^A,/[I:staff +1]^G,/F,/[I:staff -1]E/ | D/C/B/^A/^G/F/ | B/F/G/E/F/C/ | %156
 D/C/B,/D/C/E/ | D/B/F/D/E/C/ | D/C/B,/D/F,/A,/ | ^G,/B,/E/C/D/B,/ | C/B,/A,/C/B,/D/ | %161
 C/E/A/F/G/E/ | F/E/D/F/E/G/ | F/A/d/B/c/^A/ | B/A/G/B/F/B/ | E/d/c/^A/B/c/ | F/d/c/^A/B/c/ | %167
 G/d/c/^A/B/c/ | ^E/d/c/^A/B/c/ | F/d/c/^A/B/c/ | z E/D/E/C/ | D/F/B/D/E/D/ | C/E/^A/G/F/E/ | %173
 D/F/B/D/E/D/ | C/B/^A/c/F | GB,C | DF/E/F/D/ | E^G,^A, | B,D/C/D/B,/ | C/D/E/F/G/E/ | %180
 B/^A/^G/F/B/A/ | B/c<cB/ | B/A/G/F/G/E/ | ^D/=c/B/A/G/F/ | G/F/E/C/D/B,/ | ^A,/G/F/E/D/C/ | %186
 D/C/B,/^G,/A,/F,/ |[I:staff +1] ^E,/[I:staff -1]D/C/B,/^A,/^G,/ | ^A,/^G,/F,/A,/C/E/ | %189
 G/F/F/E/E/D/ | D/B,/F,/B,/D/F/ | B/A/A/^G/G/B/ | ^E/B,/F,/B,/E/^G/ | B/c/4d/4c/B/B/^A/ | %194
 ^A/c/A/F/C/[I:staff +1]F,/ | E,[I:staff -1]B/^A/^G/F/ | B[I:staff +1]D,E, | %197
 F,[I:staff -1]A/G/A/F/ | G[I:staff +1]B,,C, | D,[I:staff -1]F/E/F/D/ | E^G,^A, | B,D/C/D/B,/ | %202
[I:staff +1] E,[I:staff -1]=c/B/^A/B/ | G/F/^E/F/D/C/ | B,/D/=C/B,/^A,/B,/ | %205
[I:staff +1] ^E,/F,/^G,/[I:staff -1]^A,/B,/C/ | D/C/B,/C/D/E/ | F/C/D/B,/F,/^A,/ | z A,/G,/A,/F,/ | %209
 G,/B,/E/G,/A,/G,/ | F,/A,/^D/^B,/=B,/A,/ | %211
[I:staff +1] G,/[I:staff -1]B,/E/[I:staff +1]G,/[I:staff -1]A,/G,/ | %212
[I:staff +1] F,/[I:staff -1]A,/^D/^B,/=B,/[I:staff +1]A,/ | G,/[I:staff -1]B,/E/C/D/B,/ | %214
 ^A,/D/C/B,/A,/^G,/ |[I:staff +1] F,/[I:staff -1]F/E/D/C/B,/ | [B,FA] z2 | %217
[I:staff +1] E,/[I:staff -1]^G/F/E/D/C/ | [B,D] z2 |[I:staff +1] F,/[I:staff -1]d/c/B/4^A/4B/F/ | %220
 G/^E/F/C/D/^A,/ | B,/[I:staff +1]^E,/[I:staff -1] z [E^A] | [^DB]3 |[M:4/4] z4 z2 z z/ B/ | %224
 [DB]2 B/A/G/F/ G>E F>C | B,2- B,/A,/G,/F,/ G,>E, F,>C | C3/2B,/4^A,/4 B,>F G,>F E/D/C/B,/ | %227
 ^A,>G, F,/A,/C/E/ G>F E/D/E/C/ | D>C B,/^A,/B,/C/ D/C/D/E/ F/E/F/G/ | %229
 A2- A/G/F/E/ F3/2E/4D/4 =c>A | B2- B/A/G/F/ G>B E/4^D/4E/4D/4E/4D/4E/ | %231
 F2- F/E/ ^D/E/4F/4 B,>A G3/2A/4F/4 | G2- GB/A/ G/F/E/D/ C/D/E/C/ | %233
 G,2- G,/E/D/C/ B,/A,/G,/F,/ E,/F,/G,/E,/ | G2- G/F/G/E/{d} c2- c/B/c/A/ | e2- e/d/c/B/ A>F G>e | %236
 F-F/4G/4F/4E/4 F>G F2 F/4E/4F/4E/4F/4E/4D/4C/4 | D2 B,,>A ^G2 G/4F/4^E/F | %238
 c2- c/D/C/B,/ B,/4A,/4B,/4A,/4B,/4A,/4B,/ C/^D/^E/F/ | ^G/F/^E/F/ G/A/B/c/ d3/2c/4B/4 c>E | %240
 F2 B,/^G/F/G/ A/4G/4A/4G/4A/4G/4A/4G/4 A/4G/4A/4G/4F | F>C ^A,>C F,3 z/ B/ | %242
 [DB]2 B/A/G/F/ G>E F>C | B,2- B,/A,/G,/F,/ G,>E, F,>C | C3/2B,/4^A,/4 B,>F G,>F E/D/C/B,/ | %245
 ^A,>G, F,/A,/C/E/ G>F E/D/E/C/ | D>C B,/^A,/B,/C/ D/C/D/E/ F/E/F/G/ | %247
 A2- A/G/F/E/ F3/2E/4D/4 =c>A | B2- B/A/G/F/ G>B E/4^D/4E/4D/4E/4D/4E/ | %249
 F2- F/E/ ^D/E/4F/4 B,>A G3/2A/4F/4 | G2- GB/A/ G/F/E/D/ C/D/E/C/ | %251
 G,2- G,/E/D/C/ B,/A,/G,/F,/ E,/F,/G,/E,/ | G2- G/F/G/E/{d} c2- c/B/c/A/ | e2- e/d/c/B/ A>F G>e | %254
 F-F/4G/4F/4E/4 F>G F2 F/4E/4F/4E/4F/4E/4D/4C/4 | D2[I:staff +1] B,,>[I:staff -1]A ^G2 G/4F/4^E/F | %256
 c2- c/D/C/B,/ B,/4A,/4B,/4A,/4B,/4A,/4B,/ C/^D/^E/F/ | ^G/F/^E/F/ G/A/B/c/ d3/2c/4B/4 c>E | %258
 F2 B,/^G/F/G/ A/4G/4A/4G/4A/4G/4A/4G/4 A/4G/4A/4G/4F | F>C ^A,>C F,3 z/ c/ | %260
 c2 c/B/c/d/ B/4^A/4B/4A/4B/4A/4G/ F>E | D>F B/C/D/E/ B,/4^A,/4B,/4A,/4B,/4A,/4F/ c3/2d/4e/4 | %262
 d2[I:staff +1] B,,>[I:staff -1]c B3/2A/4^G/4 A>B | %263
 ^G2- G/G/A/B/ E3/2F/4G/4 A/4G/4A/4G/4A/4G/4F/4G/4 | A2[I:staff +1] C,/[I:staff -1]A/G/F/ E>D E>F | %265
 B,2- B,/B,/C/D/ C>C D>E | C3/2D/4C/4 B,C/A,/ F-F/4E/4D/4C/4 D>F | %267
 =C,-C,/4F,/4G,/4A,/4 B,/A,/G F2 F/4E/4^D/E | A,2- A,/-A,/G,/F,/ G,>E F>G | %269
 ^D>A G>F G/4F/4G/4F/4G/4F/4G/4F/4 G/4F/4G/4F/4E | E2- E/E/D/C/ D>B A/^G/F/E/ | %271
 A3/2G/4F/4 E>F G>F E/D/C/D/4E/4 | ^A,>F cd/4c/4B/4c/4 d>B, F,3/2G,/4=A,/4 | %273
 G,>F E>d d/4c/4d/4c/4d/4c/4B/ c/^A/B | E>F G/F/E/D/ C/B,/^A,/B,/ C/D/E/C/ | %275
 G,>^A B/A/^G/F/ B3 ^E | F>d c/d/e/c/ ^A3 B | B>F D>B, B3 z/ c/ | %278
 c2 c/B/c/d/ B/4^A/4B/4A/4B/4A/4G/ F>E | D>F B/C/D/E/ B,/4^A,/4B,/4A,/4B,/4A,/4F/ c3/2d/4e/4 | %280
 d2[I:staff +1] B,,>[I:staff -1]c B3/2A/4^G/4 A>B | %281
 ^G2- G/G/A/B/ E3/2F/4G/4 A/4G/4A/4G/4A/4G/4F/4G/4 | A2[I:staff +1] C,/[I:staff -1]A/G/F/ E>D E>F | %283
 B,2- B,/B,/C/D/ C>C D>E | C3/2D/4C/4 B,C/A,/ F-F/4E/4D/4C/4 D>F | %285
 =C,-C,/4F,/4G,/4A,/4 B,/A,/G F2 F/4E/4^D/E | A,2- A,/-A,/G,/F,/ G,>E F>G | %287
 ^D>A G>F G/4F/4G/4F/4G/4F/4G/4F/4 G/4F/4G/4F/4E | E2- E/E/D/C/ D>B A/^G/F/E/ | %289
 A3/2G/4F/4 E>F G>F E/D/C/D/4E/4 | ^A,>F cd/4c/4B/4c/4 d>B, F,3/2G,/4=A,/4 | %291
 G,>F E>d d/4c/4d/4c/4d/4c/4B/ c/^A/B | E>F G/F/E/D/ C/B,/^A,/B,/ C/D/E/C/ | %293
 G,>^A B/A/^G/F/ B3 ^E | F>d c/d/e/c/ ^A3 B | B>F D>B, B3 z | %296
[M:6/4][Q:1/4=184]"^Presto" z8 z2 z B, | B,3 CDE FGFEFD | E3 DDC B,^A, B,3 C | %299
 F,3 B,/^A,/ B,2 C2 EDCB, | G3 z{B} ^A2 B2 C3 F | D3 CB,C DEFGBA | A3 GFE DCCD ^G,>E | %303
 DCB,A, A3 BA^GAF | B3 AA^G F^E F3 G | F^E^DC c2 B^A B2 c2 | %306
 d3 cBA ^GA F/4^E/4F/4E/4F/4E/4F/4E/4 F/4E/4F/4E/4F | ^G,^EBc{B} A2 B,>^G G3 F | %308
 F2- F/E/D/C/ D>B, F4 z B, | B,3 CDE FGFEFD | E3 DDC B,^A, B,3 C | F,3 B,/^A,/ B,2 C2 EDCB, | %312
 G3 z{B} ^A2 B2 C3 F | D3 CB,C DEFGBA | A3 GFE DCCD ^G,>E | DCB,A, A3 BA^GAF | B3 AA^G F^E F3 G | %317
 F^E^DC c2 B^A B2 c2 | d3 cBA ^GA F/4^E/4F/4E/4F/4E/4F/4E/4 F/4E/4F/4E/4F | %319
 ^G,^EBc{B} A2 B,>^G G3 F | F2- F/E/D/C/ D>B, F4 z c | c3 dcB ^AB/c/ F3 ^^F | E3 DCD E^^F ^F2 E2 | %323
 EDCB, G2 F2 B3 =c | E/4^D/4E/4D/4E/4D/4E/4D/4 E/4D/4E/4D/4E FG AB =c2 B2 | AGFED=C DB,CEFG | %326
 GFED d3 e A3 G | G3 FGA Bc d/4c/4d/4c/4d/4c/4d/4c/4 d/4c/4d/4c/4B/c/ | d3 A B2 F2 FGCA | %329
 GFEDF^G FG A/4G/4A/4G/4A/4G/4A/4G/4 A/4G/4A/4G/4F/G/ | A3 ^GB^A B2 =A=GFE | %331
 E3 F E/4D/4E/4D/4E/4D/4E/4D/4 E,C D/4C/4D/4C/4D/4C/4D/4C/4 D/4C/4D/4C/4B, | %332
 B,3 F,/E,/ D,/E,/F, B4 z c | c3 dcB ^AB/c/ F3 ^^F | E3 DCD E^^F ^F2 E2 | EDCB, G2 F2 B3 =c | %336
 E/4^D/4E/4D/4E/4D/4E/4D/4 E/4D/4E/4D/4E FG AB =c2 B2 | AGFED=C DB,CEFG | GFED d3 e A3 G | %339
 G3 FGA Bc d/4c/4d/4c/4d/4c/4d/4c/4 d/4c/4d/4c/4B/c/ | d3 A B2 F2 FGCA | %341
 GFEDF^G FG A/4G/4A/4G/4A/4G/4A/4G/4 A/4G/4A/4G/4F/G/ | A3 ^GB^A B2 =A=GFE | %343
 E3 F E/4D/4E/4D/4E/4D/4E/4D/4 E,C D/4C/4D/4C/4D/4C/4D/4C/4 D/4C/4D/4C/4B, | %344
 B,3 F,/E,/ D,/E,/F, B4 z2 |[M:3/4] FD[I:staff +1] ^A,B, G,2 | %346
[I:staff -1] BG ^DE[I:staff +1] ^A,2 |[I:staff -1] cG ^DE[I:staff +1] F,[I:staff -1]F | %348
 ED[I:staff +1] ^A,B, B,,2 |[I:staff -1] B,D GF =cB | CE AG BA | GF CD[I:staff +1] A,C | D,6 | %353
[I:staff -1] FD[I:staff +1] ^A,B, G,2 |[I:staff -1] BG ^DE[I:staff +1] ^A,2 | %355
[I:staff -1] cG ^DE[I:staff +1] F,[I:staff -1]F | ED ^A,B,[I:staff +1] B,,2 | %357
[I:staff -1] B,D GF =cB | CE AG BA | GF CD[I:staff +1] A,C | D,6 | %361
[I:staff -1] AF CD[I:staff +1] =C,2 |[I:staff -1] AF ^DE[I:staff +1] F,2 | %363
[I:staff -1] =cA ^DE[I:staff +1] B,,[I:staff -1]B | AG ^DE[I:staff +1] E,2 | %365
 D,B,[I:staff -1] ED A^G |[I:staff +1] C,C[I:staff -1] FE B^A | BG ^EF[I:staff +1] ^A,B, | %368
 F,C[I:staff -1] F^E B^A | dB ^EF[I:staff +1] ^G,[I:staff -1]d | %370
 cG ^DE[I:staff +1] ^A,[I:staff -1]F | ED[I:staff +1] ^A,B, F,[I:staff -1]^A | %372
[I:staff +1] B,,F,[I:staff -1] ED B2 | AF CD[I:staff +1] =C,2 | %374
[I:staff -1] AF ^DE[I:staff +1] F,2 |[I:staff -1] =cA ^DE[I:staff +1] B,,[I:staff -1]B | %376
 AG ^DE[I:staff +1] E,2 | D,B,[I:staff -1] ED A^G |[I:staff +1] C,C[I:staff -1] FE B^A | %379
 BG ^EF[I:staff +1] ^A,B, | F,C[I:staff -1] F^E B^A | dB ^EF[I:staff +1] ^G,[I:staff -1]d | %382
 cG ^DE[I:staff +1] ^A,[I:staff -1]F | ED[I:staff +1] ^A,B, F,[I:staff -1]^A | %384
[I:staff +1] B,,F,[I:staff -1] ED B2 |[M:2/2] z4 F2 B2 | G2 AF G2 AE | F2 D^A, B,2 GD | %388
 E2 C^G, ^A,C F2 | E/4D/4E/4D/4E/4D/4E/4D/4CB, FDBF | GEA^D GEAC | FDGC FDAF | BG=cF BGd^G | %393
 cAdc BA^GF | ^G2 AF G2 BG | A2 B^G A2 dB | c2 F2 A^GF^E | F4 F2 B2 | G2 AF G2 AE | %399
 F2 D^A, B,2 GD | E2 C^G, ^A,C F2 | E/4D/4E/4D/4E/4D/4E/4D/4CB, FDBF | GEA^D GEAC | FDGC FDAF | %404
 BG=cF BGd^G | cAdc BA^GF | ^G2 AF G2 BG | A2 B^G A2 dB | c2 F2 A^GF^E | F4 A2 F2 | ^D2 EC D2 BD | %411
 E2 F^D E2 BE | F2 GE F2 BF | AGFE GFED | CG,DB, CG,AC | DF,EC DF,AD | EA,FD EA,AE | GFED G2 F2 | %418
 EDEC B2 A2 | DCDB, C2 G2 | GEFD FEDC | D4 F2 D2 | A2 B^G A2 BF | A^GFE GF^AG | B^AcA BDCB, | %425
 F,CB^A dFGE | cEFD BDEC | B^A^GF BDEC | ACDB, GB,C^A, | FEDC B,2 DB, | C2 DB, C2 EC | %431
 D2 EC D2 GE | F2 B,2 DCF,^A, | !fermata!B,4 A2 F2 | ^D2 EC D2 BD | E2 F^D E2 BE | F2 GE F2 BF | %437
 AGFE GFED | CG,DB, CG,AC | DF,EC DF,AD | EA,FD EA,AE | GFED G2 F2 | EDEC B2 A2 | DCDB, C2 G2 | %444
 GEFD FEDC | D4 F2 D2 | A2 B^G A2 BF | A^GFE GF^AG | B^AcA BDCB, | F,CB^A dFGE | cEFD BDEC | %451
 B^A^GF BDEC | ACDB, GB,C^A, | FEDC B,2 DB, | C2 DB, C2 EC | D2 EC D2 GE | F2 B,2 DCF,^A, | %457
 !fermata!B,4 (3FEF (3GFE | F2- (3FED (3CDE (3DCB, | (3^A,B,C (3F,A,C (3FEF (3GFE | %460
 (3FED (3CDE (3DCB, (3^A,B,C | B,2[I:staff +1] B,,2[I:staff -1] (3FEF (3GFE | %462
 F2- (3FED (3CDE (3DCB, | (3^A,B,C (3F,A,C (3FEF (3GFE | (3FED (3CDE (3DCB, (3^A,B,C | %465
 B,2[I:staff +1] B,,2[I:staff -1] (3DCD (3EDC | D2- (3DEF (3GFE (3FED | (3CDE (3A,CE (3A^GA (3BAG | %468
 (3A^GF (3dcB (3AGF (3^EFG | F2[I:staff +1] F,2[I:staff -1] (3F=EF (3GFE | F2- (3FED (3CDE (3DCB, | %471
 (3^A,B,C (3F,A,C (3FEF (3GFE | (3FED (3CDE (3DCB, (3^A,B,C | %473
 (3B,[I:staff +1]F,D, (3B,,D,F,[I:staff -1] (3B,DF (3Bc^A | B2- (3BAG (3FGA (3GFE | %475
 (3^DEF (3B,CD (3EDE (3FED | (3ED=C (3B,CD (3C^DE (3FED | (3EB,A, (3^G,A,B, (3A,^DE (3FED | %478
 (3^A,EF (3GFE (3BAG (3FE^D | (3EFG (3FGE (3^ABc (3BcA | (3BAG (3FED (3GFE (3DCB, | %481
 (3^A,B,C (3F,A,C (3FEF (3GFE | (3FED (3CDE (3DCB, (3^A,B,C | %483
 B,2[I:staff +1] !fermata!B,,2[I:staff -1] (3DCD (3EDC | D2- (3DEF (3GFE (3FED | %485
 (3CDE (3A,CE (3A^GA (3BAG | (3A^GF (3dcB (3AGF (3^EFG | %487
 F2[I:staff +1] F,2[I:staff -1] (3F=EF (3GFE | F2- (3FED (3CDE (3DCB, | %489
 (3^A,B,C (3F,A,C (3FEF (3GFE | (3FED (3CDE (3DCB, (3^A,B,C | %491
 (3B,[I:staff +1]F,D, (3B,,D,F,[I:staff -1] (3B,DF (3Bc^A | B2- (3BAG (3FGA (3GFE | %493
 (3^DEF (3B,CD (3EDE (3FED | (3ED=C (3B,CD (3C^DE (3FED | (3EB,A, (3^G,A,B, (3A,^DE (3FED | %496
 (3^A,EF (3GFE (3BAG (3FE^D | (3EFG (3FGE (3^ABc (3BcA | (3BAG (3FED (3GFE (3DCB, | %499
 (3^A,B,C (3F,A,C (3FEF (3GFE | (3FED (3CDE (3DCB, (3^A,B,C | %501
 B,2[I:staff +1] !fermata!B,,2[I:staff -1] F2 B2 | G2 AF G2 AE | F2 D^A, B,2 GD | E2 C^G, ^A,C F2 | %505
 E/4D/4E/4D/4E/4D/4E/4D/4CB, FDBF | GEA^D GEAC | FDGC FDAF | BG=cF BGd^G | cAdc BA^GF | %510
 ^G2 AF G2 BG | A2 B^G A2 dB | c2 F2 A^GF^E | F4 A2 F2 | ^D2 EC D2 BD | E2 F^D E2 BE | %516
 F2 GE F2 BF | AGFE GFED | CG,DB, CG,AC | DF,EC DF,AD | EA,FD EA,AE | GFED G2 F2 | EDEC B2 A2 | %523
 DCDB, C2 G2 | GEFD FEDC | D4 F2 D2 | A2 B^G A2 BF | A^GFE GF^AG | B^AcA BDCB, | F,CB^A dFGE | %530
 cEFD BDEC | B^A^GF BDEC | ACDB, GB,C^A, | FEDC B,2 DB, | C2 DB, C2 EC | D2 EC D2 GE | %536
 F2 B,2 DCF,^A, | !fermata!B,4 z4 |[M:3/8][Q:1/4=132]"^Allegro" z2 F | D>EC | D>EC | B,>A,G,/F,/ | %542
 G,>B,F, | E,>DB, | C>DB, | ^A,>CF, | F>ED/C/ | D>FB, | G>FE/D/ | E>GC | A>GF/E/ | F>DB | G>Ec | %553
 d3- | d>cB/A/ | B>AG/F/ | G3- | G>FE/D/ | C>B,A,/G,/ | F,>GE | F>AC | D>F,A, | %562
[I:staff +1] D,2[I:staff -1] F | D>EC | D>EC | B,>A,G,/F,/ | G,>B,F, | E,>DB, | C>DB, | ^A,>CF, | %570
 F>ED/C/ | D>FB, | G>FE/D/ | E>GC | A>GF/E/ | F>DB | G>Ec | d3- | d>cB/A/ | B>AG/F/ | G3- | %581
 G>FE/D/ | C>B,A,/G,/ | F,>GE | F>AC | D>F,A, |[I:staff +1] D,2[I:staff -1] D | F>GE | F>A^G | %589
 A>CD/E/ | A,>B,C | D>B^G | A>^EF | ^E>^GC | c>BA/^G/ | A>cF | E>FC | D>FB | d2 c | B>^EF | %600
 C>^G^E | F>A,B,/C/ |[I:staff +1] F,>[I:staff -1]AF | ^D>FA | =c>AB | G>FE/^D/ | E>GD | C>EG | %608
 B>GA | F>ED/C/ | D>FA | ^G>ED/C/ | D>^GB | ^A>FE/D/ | E>^Ac | B>Fd | c>Fe | %617
 e/4d/4e/4d/4e/4d/4e/4d/4e/4d/4e/4d/4 | e/4^d/4e/4d/4e/4d/4e/4d/4e/4d/4e/4d/4 | e>cd | c>^AB | %621
 ^A>Bc | F>ED/C/ | D B2- | B>AG/F/ | G>FE/^D/ | E3- | E>DC/B,/ | ^A,>G,F,/E,/ | D,>F,^A, | C>EG | %631
 F>CD | F,>B,^A, | B,>D,F, |[I:staff +1] B,,2[I:staff -1] D | F>GE | F>A^G | A>CD/E/ | A,>B,C | %639
 D>B^G | A>^EF | ^E>^GC | c>BA/^G/ | A>cF | E>FC | D>FB | d2 c | B>^EF | C>^G^E | F>A,B,/C/ | %650
 F,>AF | ^D>FA | =c>AB | G>FE/^D/ | E>GD | C>EG | B>GA | F>ED/C/ | D>FA | ^G>ED/C/ | D>^GB | %661
 ^A>FE/D/ | E>^Ac | B>Fd | c>Fe | e/4d/4e/4d/4e/4d/4e/4d/4e/4d/4e/4d/4 | %666
 e/4^d/4e/4d/4e/4d/4e/4d/4e/4d/4e/4d/4 | e>cd | c>^AB | ^A>Bc | F>ED/C/ | D B2- | B>AG/F/ | %673
 G>FE/^D/ | E3- | E>DC/B,/ | ^A,>G,F,/E,/ | D,>F,^A, | C>EG | F>CD | F,>B,^A, | B,>D,F, | %682
[I:staff +1] !fermata!B,,2[I:staff -1] z |] %683
V:2
 B,,2 z2 z4 | B,,3 z z4 | B,2 B,,2 z4 | ^A,4 =A,2- A,/G,/A,/F,/ | G,2 B,,2 G,3 z | %5
 [B,,F,]2 z2[I:staff -1] ^D2[I:staff +1] z2 |[I:staff -1] E2[I:staff +1] B,,2 z4 | ^A,3 z z4 | %8
 [B,,F,]2 z2 z4 | F,2 z2 z4 | F,3 z z4 | F,3 z z4 | F,2 z2 z4 | F,2 z2 z4 | %14
[I:staff -1] E2[I:staff +1] z2 z4 | [C,A,]2 z2 z4 | [D,A,]2 z2 z4 | z8 | z8 | z8 | F,2 z2 z4 | %21
 [B,,F,]2 z2 z4 | z8 | z8 | z8 | z8 |[M:3/8] F,2 z | z3 | z3 | z3 | z3 | z3 | z3 | z3 | z3 | z3 | %36
 z3 | z3 | z3 | z3 | z3 |[I:staff -1] F C2 |[I:staff +1] z3 | z3 | z3 | z3 | z3 | z3 | z3 | z3 | %50
 z3 | z3 | z3 | B, F,2 | z3 | z3 | z3 | z3 | z3 | z3 | z3 |[I:staff -1] F C2 | %62
[I:staff +1] F,/ z/ z2 | z3 | z3 | z3 | z3 | z3 | z3 | z3 | z3 | z3 | z3 | z3 | z3 | z3 | z3 | %77
 z A,2 | D, z2 | z3 | z3 | z3 | z3 | z3 | z3 | z3 | z3 | z3 | z3 | z3 | z3 | z3 | z3 | z3 | z3 | %95
 z3 | z3 | z3 | z3 | z3 | z3 | z3 | z3 | z3 | z3 | z3 | z3 | z3 | [F,A,]2 z | C3 | z3 | z3 | z3 | %113
 ^A,3 | z3 | z3 | z3 | z3 | z3 | z3 | z3 | z3 | z3 | z3 | z3 | z3 | z3 | z3 | z3 | z3 | z3 | z3 | %132
 z3 | z3 | z3 | z3 | z3 |[I:staff -1] G3 |[I:staff +1] z3 | z3 | z3 |[I:staff -1] F3 | %142
[I:staff +1] z3 | z3 | z3 |[I:staff -1] E3 |[I:staff +1] z3 | z3 | z3 | z3 | z3 | z3 | z3 | z3 | %154
 z3 | z3 | z3 | z3 | z3 | z3 | z3 | z3 | z3 | z3 | z3 | z3 | z3 | z3 | z3 | z3 | F,3 | F, z2 | %172
 F, z2 | F, z2 | z3 | z3 | z3 | z3 | z3 | z3 | z3 | z[I:staff -1] F2 |[I:staff +1] z3 | z3 | z3 | %185
 z3 | z3 | z3 | z3 | z3 | z3 | z3 | z3 | z3 | z3 | z3 | z3 | z3 | z3 | z3 | z3 | z3 | z3 | z3 | %204
 z3 | z3 | z3 | z3 | B,,3 | B,, z2 | B,, z2 | B,, z2 | B,, z2 | B,, z2 | C, z2 | D, z2 | ^D, z2 | %217
 z3 | ^E, z2 | z3 | z3 | z F,F, | [B,,F,]3 |[M:4/4] z8 | [B,,F,]2 z2 z2 ^A,2 | D2 z2 z4 | %226
 [D,F,] z z2 z4 | z8 | [B,,F,] z z2 z4 | [F,D]2 z2 z4 | [G,D]2 z2 z4 | [^D,B,]2 z2 z4 | %232
 [E,B,E]2 z2 z4 | z8 | [C,A,E]2 z2 z4 | G2 z2 z4 | D2 z2 ^A,2 z2 | B,2 z2 z4 | [B,,^G,^E]2 z2 z4 | %239
 z8 | [A,C]2 z2 C4 | z8 | [B,,F,]2 z2 z2 ^A,2 | D2 z2 z4 | [D,F,] z z2 z4 | z8 | [B,,F,] z z2 z4 | %247
 [F,D]2 z2 z4 | [G,D]2 z2 z4 | [^D,B,]2 z2 z4 | [E,B,E]2 z2 z4 | z8 | [C,A,E]2 z2 z4 | G2 z2 z4 | %254
 D2 z2 ^A,2 z2 | B,2 z2 z4 | [B,,^G,^E]2 z2 z4 | z8 | [A,C]2 z2 C4 | z8 | [F,^A]2 z2 z4 | z8 | z8 | %263
 D2 z2 z4 | C2 z2 z4 | [DG]2 z2 G2 z2 | [F,G]2 z2 D z z2 | z8 | [B,,^D]2 z2 z4 | z4 B,3 z | %270
 ^G,2 z2 z4 | C2 z2 z4 | z8 | z8 | [F,^A]3/2 z/ z2 z4 | z4 z2 z ^G, | F,3/2 z/ z2 C4 | %277
 z4 [B,,F,D]3 z/ z/ | [F,^A]2 z2 z4 | z8 | z8 | D2 z2 z4 | C2 z2 z4 | [DG]2 z2 G2 z2 | %284
 [F,G]2 z2 D z z2 | z8 | [B,,^D]2 z2 z4 | z4 B,3 z | ^G,2 z2 z4 | C2 z2 z4 | z8 | z8 | %292
 [F,^A]3/2 z/ z2 z4 | z4 z2 z ^G, | F,3/2 z/ z2 C4 | z4 [B,,F,D]3 z |[M:6/4] z12 | B,,3 z z8 | %298
 [C,^A,]2 z2 z8 | D,3 z z8 | [E,B,E]3 E z2 D2 F,4 | [B,,F,]4 z8 | [F,D]3 z z8 | z4 z8 | D3 z z8 | %305
 C z z2 z2 =E2 =D2 C2 | [B,F]3 z z8 | z4 [F,C]2 z2 C4 | F2 z2 z2 F,4 z z | B,,3 z z8 | %310
 [C,^A,]2 z2 z8 | D,3 z z8 | [E,B,E]3 E z2 D2 F,4 | [B,,F,]4 z8 | [F,D]3 z z8 | z12 | D3 z z8 | %317
 C z z2 z2 =E2 =D2 C2 | [B,F]3 z z8 | z4 [F,C]2 z2 C4 | F2 z2 z2 F,4 z2 | [F,^A]3 z z8 | %322
 ^G,3 z z4 ^A,2 F,2 | B, z z2 z2 [A,C]2 [G,D]3 z | F,3 z z4 z2 ^D2 | E z z2 z8 | %326
 B,4 [B,G]3 z D3 z | z12 | F3 z z2 D2 E2 z2 | D z z2 z8 | C3 z z2 D2 E z C z | %331
 ^A,2 F,2 B,2 z2 F,3 z | z4 z2 [B,,F,D]4 z z | [F,^A]3 z z8 | ^G,3 z z4 ^A,2 F,2 | %335
 B, z z2 z2 [A,C]2 [G,D]3 z | F,3 z z4 z2 ^D2 | E z z2 z8 | B,4 [B,G]3 z D3 z | z12 | %340
 F3 z z2 D2 E2 z2 | D z z2 z8 | C3 z z2 D2 E z C z | ^A,2 F,2 B,2 z2 F,3 z | z4 z2 [B,,F,D]4 z2 | %345
[M:3/4] z6 | z6 | z6 | z6 | z6 | z6 | z6 | z6 | z6 | z6 | z6 | z6 | z6 | z6 | z6 | z6 | z6 | z6 | %363
 z6 | z6 | z6 | z6 | z6 | z6 | z6 | z6 | z6 | z6 | z6 | z6 | z6 | z6 | z6 | z6 | z6 | z6 | z6 | %382
 z6 | z6 | z6 |[M:2/2] z4 [B,,D]2 z2 | E2 z2 C2 z2 | z8 | z8 | [B,,F,]2 z2 z4 | z8 | z8 | z8 | z8 | %394
 [B,F]2 z2 D2 z2 | C2 z2 [B,F]2 z2 | z2 [A,C]2 [B,F]2 C z | [F,C]4 [B,,D]2 z2 | E2 z2 C2 z2 | z8 | %400
 z8 | [B,,F,]2 z2 z4 | z8 | z8 | z8 | z8 | [B,F]2 z2 D2 z2 | C2 z2 [B,F]2 z2 | %408
 z2 [A,C]2 [B,F]2 C z | [F,C]4 [F,C]2 z2 | [B,,A,]2 z2 C2 z2 | G,2 z2 z4 | ^D2 z2 [B,,B,D]2 z2 | %413
 E2 z2 z4 | z8 | z8 | z8 | z4 [B,D]2 [A,D]2 | G,2 z2 [G,D]2 [F,D]2 | [E,G,]2 z2 [E,G,]2 C2 | %420
 D2 z2 A,2 z2 | [D,A,]4 [D,A,]2 z2 | C2 z2 z2 ^D2 | E2 z2 z4 | ^E2 z2 z4 | z8 | z8 | [F,C]4 z4 | %428
 z8 | [C,CE]2 z2 D,2 z2 | [E,B,]2 z2 G,2 z2 | F,2 z2 [E,B,]2 z2 | z2 D,2 [E,B,]2 z2 | %433
 !fermata!B,,4 [F,C]2 z2 | [B,,A,]2 z2 C2 z2 | G,2 z2 z4 | ^D2 z2 [B,,B,D]2 z2 | E2 z2 z4 | z8 | %439
 z8 | z8 | z4 [B,D]2 [A,D]2 | G,2 z2 [G,D]2 [F,D]2 | [E,G,]2 z2 [E,G,]2 C2 | D2 z2 A,2 z2 | %445
 [D,A,]4 [D,A,]2 z2 | C2 z2 z2 ^D2 | E2 z2 z4 | ^E2 z2 z4 | z8 | z8 | [F,C]4 z4 | z8 | %453
 [C,CE]2 z2 D,2 z2 | [E,B,]2 z2 G,2 z2 | F,2 z2 [E,B,]2 z2 | z2 D,2 [E,B,]2 z2 | !fermata!B,,4 z4 | %458
 z8 | z8 | z8 | z8 | z8 | z8 | z8 | z8 | z8 | z8 | z8 | z8 | z8 | z8 | z8 | z8 | z8 | z8 | z8 | %477
 z8 | z8 | z8 | z8 | z8 | z8 | z4 z4 | z8 | z8 | z8 | z8 | z8 | z8 | z8 | z8 | z8 | z8 | z8 | z8 | %496
 z8 | z8 | z8 | z8 | z8 | z4 [B,,D]2 z2 | E2 z2 C2 z2 | z8 | z8 | [B,,F,]2 z2 z4 | z8 | z8 | z8 | %509
 z8 | [B,F]2 z2 D2 z2 | C2 z2 [B,F]2 z2 | z2 [A,C]2 [B,F]2 C z | [F,C]4 [F,C]2 z2 | %514
 [B,,A,]2 z2 C2 z2 | G,2 z2 z4 | ^D2 z2 [B,,B,D]2 z2 | E2 z2 z4 | z8 | z8 | z8 | z4 [B,D]2 [A,D]2 | %522
 G,2 z2 [G,D]2 [F,D]2 | [E,G,]2 z2 [E,G,]2 C2 | D2 z2 A,2 z2 | [D,A,]4 [D,A,]2 z2 | C2 z2 z2 ^D2 | %527
 E2 z2 z4 | ^E2 z2 z4 | z8 | z8 | [F,C]4 z4 | z8 | [C,CE]2 z2 D,2 z2 | [E,B,]2 z2 G,2 z2 | %535
 F,2 z2 [E,B,]2 z2 | z2 D,2 [E,B,]2 z2 | !fermata!B,,4 z4 |[M:3/8] z3 | z3 | z3 | z3 | z3 | z3 | %544
 z3 | z3 | z3 | z3 | z3 | z3 | z3 | z3 | z3 | z3 | z3 | z3 | z3 | z3 | z3 | z3 | z3 | z3 | z3 | %563
 z3 | z3 | z3 | z3 | z3 | z3 | z3 | z3 | z3 | z3 | z3 | z3 | z3 | z3 | z3 | z3 | z3 | z3 | z3 | %582
 z3 | z3 | z3 | z3 | z3 | z3 | z3 | z3 | z3 | z3 | z3 | z3 | z3 | z3 | z3 | z3 | z3 | z3 | z3 | %601
 z3 | z3 | z3 | z3 | z3 | z3 | z3 | z3 | z3 | z3 | z3 | z3 | z3 | z3 | z3 | z3 | z3 | z3 | z3 | %620
 z3 | z3 | z3 | z3 | z3 | z3 | z3 | z3 | z3 | z3 | z3 | z3 | z3 | z3 | z3 | z3 | z3 | z3 | z3 | %639
 z3 | z3 | z3 | z3 | z3 | z3 | z3 | z3 | z3 | z3 | z3 | z3 | z3 | z3 | z3 | z3 | z3 | z3 | z3 | %658
 z3 | z3 | z3 | z3 | z3 | z3 | z3 | z3 | z3 | z3 | z3 | z3 | z3 | z3 | z3 | z3 | z3 | z3 | z3 | %677
 z3 | z3 | z3 | z3 | z3 | z3 |] %683

